images/corp-leadership.svg

<svg height="64" viewBox="0 0 57 64" width="57" xmlns="http://www.w3.org/2000/svg"><path d="m0 55.8059522c0-4.9029959 4.09702392-8.7985268 8.8656911-8.7985268h18.6716828c4.9701601 0 8.7985267 3.8283666 8.7985267 8.7985268v8.1940478h-36.3359006zm18.1343682-12.4254004c-5.5746391 0-10.07464902-4.5671742-10.14181335-10.1418133 0-5.5746391 4.56717425-10.1418133 10.14181335-10.1418133s10.1418133 4.5671742 10.1418133 10.1418133-4.5671742 10.1418133-10.1418133 10.1418133zm23.7761715 1.4776151c-4.4328455 0-7.9253905-3.6940379-7.9253905-7.9925548s3.492545-7.9253905 7.9253905-7.9253905c4.2985169 0 7.9253906 3.6940379 7.9253906 7.9925548s-3.492545 7.9253905-7.9253906 7.9253905zm7.3209116 2.8880661c3.895531 0 6.98509 3.089559 6.98509 6.9179256v9.3358414h-16.656753l-.3358216-8.1268835c0-3.2238877-1.4104509-6.179118-3.694038-8.1268835zm1.6791082-38.88814506c1.6791082 6.38061106-2.0820941 12.82838636-8.3955408 14.50749456l-12.5597291 3.291052 3.089559-4.7686672c-2.4179157-1.5447795-4.2985169-3.9626953-5.1044888-6.98509-1.6791081-6.31344667 2.1492585-12.82838634 8.4627052-14.5074945 6.380611-1.67910816 12.8283863 2.14925845 14.5074945 8.46270514zm-6.380611 1.88060116 1.8806011 1.1417935-.3358216-5.30598176-5.2388175 1.81343681 1.8806012 1.07462923-2.3507515 2.41791572-3.1567233-2.08209409-4.7686672 5.44031049 1.6791082 1.4776151 3.3582163-3.9626952 3.089559 2.0820941z" fill="#e0be41"/></svg>

<?xml version="1.0" encoding="UTF-8"?>
<svg width="57px" height="64px" viewBox="0 0 57 64" version="1.1" xmlns="http://www.w3.org/2000/svg" xmlns:xlink="http://www.w3.org/1999/xlink">
    <!-- Generator: Sketch 50.2 (55047) - http://www.bohemiancoding.com/sketch -->
    <title>corp-leadership</title>
    <desc>Created with Sketch.</desc>
    <defs></defs>
    <g id="Page-1" stroke="none" stroke-width="1" fill="none" fill-rule="evenodd">
        <g id="2.1.1.Corporate" transform="translate(-158.000000, -1152.000000)" fill="#E0BE41" fill-rule="nonzero">
            <g id="Group-2" transform="translate(158.000000, 1088.000000)">
                <g id="Strategy-Copy" transform="translate(0.000000, 64.000000)">
                    <path d="M0,55.8059522 C0,50.9029563 4.09702392,47.0074254 8.8656911,47.0074254 L27.5373739,47.0074254 C32.507534,47.0074254 36.3359006,50.835792 36.3359006,55.8059522 L36.3359006,64 L0,64 L0,55.8059522 Z M18.1343682,43.3805518 C12.5597291,43.3805518 8.05971918,38.8133776 7.99255485,33.2387385 C7.99255485,27.6640994 12.5597291,23.0969252 18.1343682,23.0969252 C23.7090073,23.0969252 28.2761815,27.6640994 28.2761815,33.2387385 C28.2761815,38.8133776 23.7090073,43.3805518 18.1343682,43.3805518 Z M41.9105397,44.8581669 C37.4776942,44.8581669 33.9851492,41.164129 33.9851492,36.8656121 C33.9851492,32.5670952 37.4776942,28.9402216 41.9105397,28.9402216 C46.2090566,28.9402216 49.8359303,32.6342595 49.8359303,36.9327764 C49.8359303,41.2312933 46.3433853,44.8581669 41.9105397,44.8581669 Z M49.2314513,47.746233 C53.1269823,47.746233 56.2165413,50.835792 56.2165413,54.6641586 L56.2165413,64 L39.5597883,64 L39.2239667,55.8731165 C39.2239667,52.6492288 37.8135158,49.6939985 35.5299287,47.746233 L49.2314513,47.746233 Z M50.9105595,8.85808794 C52.5896677,15.238699 48.8284654,21.6864743 42.5150187,23.3655825 L29.9552896,26.6566345 L33.0448486,21.8879673 C30.6269329,20.3431878 28.7463317,17.925272 27.9403598,14.9028773 C26.2612517,8.58943063 30.0896183,2.07449096 36.403065,0.395382799 C42.783676,-1.28372536 49.2314513,2.54464125 50.9105595,8.85808794 Z M44.5299485,10.7386891 L46.4105496,11.8804826 L46.074728,6.57450084 L40.8359105,8.38793765 L42.7165117,9.46256688 L40.3657602,11.8804826 L37.2090369,9.79838851 L32.4403697,15.238699 L34.1194779,16.7163141 L37.4776942,12.7536189 L40.5672532,14.835713 L44.5299485,10.7386891 Z" id="corp-leadership"></path>
                </g>
            </g>
        </g>
    </g>
</svg>
